svg/fluentui-system-icons/ic_fluent_building_townhouse_24_filled.svg

<svg width="24" height="24" viewBox="0 0 24 24" fill="none" xmlns="http://www.w3.org/2000/svg">
<path d="M8.48159 3.52967C7.79449 2.82344 6.66005 2.82344 5.97296 3.52967L3.63731 5.93037C3.22865 6.35041 3 6.91332 3 7.49936V19.25C3 20.2165 3.7835 21 4.75 21H8V16.75C8 16.3358 8.33579 16 8.75 16H11.25V7.28912C11.25 6.70308 11.0213 6.14017 10.6127 5.72013L8.48159 3.52967ZM12.75 7.28912V16H15.25C15.6642 16 16 16.3358 16 16.75V21H19.25C20.2165 21 21 20.2165 21 19.25V7.49936C21 6.91332 20.7713 6.35041 20.3627 5.93037L18.027 3.52967C17.3399 2.82344 16.2055 2.82344 15.5184 3.52967L13.3873 5.72013C12.9787 6.14017 12.75 6.70308 12.75 7.28912ZM12.75 17.5V21H14.5V17.5H12.75ZM11.25 21V17.5H9.5V21H11.25ZM8.125 9C8.125 9.55228 7.67728 10 7.125 10C6.57272 10 6.125 9.55228 6.125 9C6.125 8.44772 6.57272 8 7.125 8C7.67728 8 8.125 8.44772 8.125 9ZM16.875 10C16.3227 10 15.875 9.55228 15.875 9C15.875 8.44772 16.3227 8 16.875 8C17.4273 8 17.875 8.44772 17.875 9C17.875 9.55228 17.4273 10 16.875 10ZM8.125 12.9966C8.125 13.5489 7.67728 13.9966 7.125 13.9966C6.57272 13.9966 6.125 13.5489 6.125 12.9966C6.125 12.4443 6.57272 11.9966 7.125 11.9966C7.67728 11.9966 8.125 12.4443 8.125 12.9966ZM16.875 13.9966C16.3227 13.9966 15.875 13.5489 15.875 12.9966C15.875 12.4443 16.3227 11.9966 16.875 11.9966C17.4273 11.9966 17.875 12.4443 17.875 12.9966C17.875 13.5489 17.4273 13.9966 16.875 13.9966Z" fill="#212121"/>
</svg>

<svg xmlns="http://www.w3.org/2000/svg" width="24" height="24"><path d="M8.482 3.53a1.75 1.75 0 0 0-2.509 0l-2.336 2.4A2.25 2.25 0 0 0 3 7.5v11.75c0 .966.784 1.75 1.75 1.75H8v-4.25a.75.75 0 0 1 .75-.75h2.5V7.29a2.25 2.25 0 0 0-.637-1.57L8.482 3.53Zm4.268 3.76V16h2.5a.75.75 0 0 1 .75.75V21h3.25A1.75 1.75 0 0 0 21 19.25V7.5a2.25 2.25 0 0 0-.637-1.57l-2.336-2.4a1.75 1.75 0 0 0-2.509 0l-2.13 2.19a2.25 2.25 0 0 0-.638 1.57Zm0 10.21V21h1.75v-3.5h-1.75Zm-1.5 3.5v-3.5H9.5V21h1.75ZM8.125 9a1 1 0 1 1-2 0 1 1 0 0 1 2 0Zm8.75 1a1 1 0 1 1 0-2 1 1 0 0 1 0 2Zm-8.75 2.997a1 1 0 1 1-2 0 1 1 0 0 1 2 0Zm8.75 1a1 1 0 1 1 0-2 1 1 0 0 1 0 2Z"/></svg>
